weblate_web/static/img/icon-dash.svg

<svg xmlns="http://www.w3.org/2000/svg" xmlns:xlink="http://www.w3.org/1999/xlink" width="21" height="14" version="1.1" viewBox="0 0 21 14"><title>3D72C6F5-A479-4713-BEF1-A988F58692C5</title><desc>Created with sketchtool.</desc><g id="Weblate" fill="none" fill-rule="evenodd" stroke="none" stroke-width="1"><g id="Donate" fill="#2ECCAA" fill-rule="nonzero" transform="translate(-346.000000, -2630.000000)"><g id="dash" transform="translate(346.000000, 2630.000000)"><path id="Path" d="M18.5674219,11.1671094 L20.7311719,3.74210937 L20.7724219,3.54960937 C20.7845313,3.44757812 20.7907813,3.34492187 20.7911719,3.24210937 C20.7911719,1.86140625 19.671875,0.742109375 18.2911719,0.742109375 L5.95742188,0.742109375 L5.95742188,3.24210937 L18.2749219,3.24210937 L16.1499219,10.5483594 L16.1036719,10.7421094 L3.45742188,10.7421094 L3.45742188,13.2421094 L16.1036719,13.2421094 C17.3204688,13.2421875 18.3605469,12.3661719 18.5674219,11.1671094 Z"/><rect id="Rectangle" width="7.5" height="2.5" x=".957" y="5.742"/></g></g></g></svg>

<svg width="21" height="14" version="1.1" viewBox="0 0 21 14" xmlns="http://www.w3.org/2000/svg"><g fill="none" fill-rule="evenodd"><g transform="translate(-346 -2630)" fill="#2ECCAA" fill-rule="nonzero"><g transform="translate(346 2630)"><path d="m18.567 11.167 2.1638-7.425 0.04125-0.1925c0.012109-0.10203 0.018359-0.20469 0.01875-0.3075 0-1.3807-1.1193-2.5-2.5-2.5h-12.334v2.5h12.318l-2.125 7.3063-0.04625 0.19375h-12.646v2.5h12.646c1.2168 7.81e-5 2.2569-0.87594 2.4638-2.075z"/><rect x=".957" y="5.742" width="7.5" height="2.5"/></g></g></g></svg>
